bernoullicharts/log_1_x_two-coin_special_case__bits.svg

<?xml version="1.0" encoding="utf-8" standalone="no"?>
<!DOCTYPE svg PUBLIC "-//W3C//DTD SVG 1.1//EN"
  "http://www.w3.org/Graphics/SVG/1.1/DTD/svg11.dtd">
<!-- Created with matplotlib (https://matplotlib.org/) -->
<svg height="345.6pt" version="1.1" viewBox="0 0 460.8 345.6" width="460.8pt" xmlns="http://www.w3.org/2000/svg" xmlns:xlink="http://www.w3.org/1999/xlink">
 <defs>
  <style type="text/css">
*{stroke-linecap:butt;stroke-linejoin:round;}
  </style>
 </defs>
 <g id="figure_1">
  <g id="patch_1">
   <path d="M 0 345.6 
L 460.8 345.6 
L 460.8 0 
L 0 0 
z
" style="fill:#ffffff;"/>
  </g>
  <g id="axes_1">
   <g id="patch_2">
    <path d="M 57.6 307.584 
L 414.72 307.584 
L 414.72 41.472 
L 57.6 41.472 
z
" style="fill:#ffffff;"/>
   </g>
   <g id="matplotlib.axis_1">
    <g id="xtick_1">
     <g id="line2d_1">
      <defs>
       <path d="M 0 0 
L 0 3.5 
" id="m6e26e2070c" style="stroke:#000000;stroke-width:0.8;"/>
      </defs>
      <g>
       <use style="stroke:#000000;stroke-width:0.8;" x="73.800255" xlink:href="#m6e26e2070c" y="307.584"/>
      </g>
     </g>
     <g id="text_1">
      <text style="font-family:DejaVu Sans;font-size:10px;font-style:normal;font-weight:normal;text-anchor:middle;" transform="rotate(-0, 73.800255, 322.182437)" x="73.800255" y="322.182437">0.0</text>
     </g>
    </g>
    <g id="xtick_2">
     <g id="line2d_2">
      <g>
       <use style="stroke:#000000;stroke-width:0.8;" x="138.744153" xlink:href="#m6e26e2070c" y="307.584"/>
      </g>
     </g>
     <g id="text_2">
      <text style="font-family:DejaVu Sans;font-size:10px;font-style:normal;font-weight:normal;text-anchor:middle;" transform="rotate(-0, 138.744153, 322.182437)" x="138.744153" y="322.182437">0.2</text>
     </g>
    </g>
    <g id="xtick_3">
     <g id="line2d_3">
      <g>
       <use style="stroke:#000000;stroke-width:0.8;" x="203.688051" xlink:href="#m6e26e2070c" y="307.584"/>
      </g>
     </g>
     <g id="text_3">
      <text style="font-family:DejaVu Sans;font-size:10px;font-style:normal;font-weight:normal;text-anchor:middle;" transform="rotate(-0, 203.688051, 322.182437)" x="203.688051" y="322.182437">0.4</text>
     </g>
    </g>
    <g id="xtick_4">
     <g id="line2d_4">
      <g>
       <use style="stroke:#000000;stroke-width:0.8;" x="268.631949" xlink:href="#m6e26e2070c" y="307.584"/>
      </g>
     </g>
     <g id="text_4">
      <text style="font-family:DejaVu Sans;font-size:10px;font-style:normal;font-weight:normal;text-anchor:middle;" transform="rotate(-0, 268.631949, 322.182437)" x="268.631949" y="322.182437">0.6</text>
     </g>
    </g>
    <g id="xtick_5">
     <g id="line2d_5">
      <g>
       <use style="stroke:#000000;stroke-width:0.8;" x="333.575847" xlink:href="#m6e26e2070c" y="307.584"/>
      </g>
     </g>
     <g id="text_5">
      <text style="font-family:DejaVu Sans;font-size:10px;font-style:normal;font-weight:normal;text-anchor:middle;" transform="rotate(-0, 333.575847, 322.182437)" x="333.575847" y="322.182437">0.8</text>
     </g>
    </g>
    <g id="xtick_6">
     <g id="line2d_6">
      <g>
       <use style="stroke:#000000;stroke-width:0.8;" x="398.519745" xlink:href="#m6e26e2070c" y="307.584"/>
      </g>
     </g>
     <g id="text_6">
      <text style="font-family:DejaVu Sans;font-size:10px;font-style:normal;font-weight:normal;text-anchor:middle;" transform="rotate(-0, 398.519745, 322.182437)" x="398.519745" y="322.182437">1.0</text>
     </g>
    </g>
    <g id="text_7">
     <text style="font-family:DejaVu Sans;font-size:10px;font-style:normal;font-weight:normal;text-anchor:middle;" transform="rotate(-0, 236.16, 335.860562)" x="236.16" y="335.860562">Probability</text>
    </g>
   </g>
   <g id="matplotlib.axis_2">
    <g id="ytick_1">
     <g id="line2d_7">
      <defs>
       <path d="M 0 0 
L -3.5 0 
" id="m70b7d5857f" style="stroke:#000000;stroke-width:0.8;"/>
      </defs>
      <g>
       <use style="stroke:#000000;stroke-width:0.8;" x="57.6" xlink:href="#m70b7d5857f" y="267.323693"/>
      </g>
     </g>
     <g id="text_8">
      <text style="font-family:DejaVu Sans;font-size:10px;font-style:normal;font-weight:normal;text-anchor:end;" transform="rotate(-0, 50.6, 271.122912)" x="50.6" y="271.122912">5.5</text>
     </g>
    </g>
    <g id="ytick_2">
     <g id="line2d_8">
      <g>
       <use style="stroke:#000000;stroke-width:0.8;" x="57.6" xlink:href="#m70b7d5857f" y="226.623828"/>
      </g>
     </g>
     <g id="text_9">
      <text style="font-family:DejaVu Sans;font-size:10px;font-style:normal;font-weight:normal;text-anchor:end;" transform="rotate(-0, 50.6, 230.423046)" x="50.6" y="230.423046">6.0</text>
     </g>
    </g>
    <g id="ytick_3">
     <g id="line2d_9">
      <g>
       <use style="stroke:#000000;stroke-width:0.8;" x="57.6" xlink:href="#m70b7d5857f" y="185.923962"/>
      </g>
     </g>
     <g id="text_10">
      <text style="font-family:DejaVu Sans;font-size:10px;font-style:normal;font-weight:normal;text-anchor:end;" transform="rotate(-0, 50.6, 189.723181)" x="50.6" y="189.723181">6.5</text>
     </g>
    </g>
    <g id="ytick_4">
     <g id="line2d_10">
      <g>
       <use style="stroke:#000000;stroke-width:0.8;" x="57.6" xlink:href="#m70b7d5857f" y="145.224097"/>
      </g>
     </g>
     <g id="text_11">
      <text style="font-family:DejaVu Sans;font-size:10px;font-style:normal;font-weight:normal;text-anchor:end;" transform="rotate(-0, 50.6, 149.023316)" x="50.6" y="149.023316">7.0</text>
     </g>
    </g>
    <g id="ytick_5">
     <g id="line2d_11">
      <g>
       <use style="stroke:#000000;stroke-width:0.8;" x="57.6" xlink:href="#m70b7d5857f" y="104.524231"/>
      </g>
     </g>
     <g id="text_12">
      <text style="font-family:DejaVu Sans;font-size:10px;font-style:normal;font-weight:normal;text-anchor:end;" transform="rotate(-0, 50.6, 108.32345)" x="50.6" y="108.32345">7.5</text>
     </g>
    </g>
    <g id="ytick_6">
     <g id="line2d_12">
      <g>
       <use style="stroke:#000000;stroke-width:0.8;" x="57.6" xlink:href="#m70b7d5857f" y="63.824366"/>
      </g>
     </g>
     <g id="text_13">
      <text style="font-family:DejaVu Sans;font-size:10px;font-style:normal;font-weight:normal;text-anchor:end;" transform="rotate(-0, 50.6, 67.623585)" x="50.6" y="67.623585">8.0</text>
     </g>
    </g>
    <g id="text_14">
     <text style="font-family:DejaVu Sans;font-size:10px;font-style:normal;font-weight:normal;text-anchor:middle;" transform="rotate(-90, 28.617187, 174.528)" x="28.617187" y="174.528">Average Bits Consumed Per Call</text>
    </g>
   </g>
   <g id="line2d_13">
    <path clip-path="url(#pe49a807e30)" d="M 73.832727 56.335591 
L 77.112066 53.568 
L 80.391405 69.522347 
L 83.670744 107.291822 
L 86.950083 82.057906 
L 90.229421 94.267865 
L 93.50876 95.570261 
L 96.788099 72.452738 
L 100.067438 121.455376 
L 103.346777 131.386143 
L 106.626116 98.663451 
L 109.905455 119.338983 
L 113.184793 93.291069 
L 116.464132 153.689669 
L 119.743471 175.341997 
L 123.02281 113.9666 
L 126.302149 120.641378 
L 129.581488 116.245793 
L 132.860826 125.688162 
L 136.140165 91.011876 
L 139.419504 140.991311 
L 142.698843 118.362186 
L 145.978182 168.016022 
L 149.257521 132.851338 
L 152.53686 183.48197 
L 155.816198 121.943774 
L 159.095537 147.828888 
L 162.374876 199.110719 
L 165.654215 134.804931 
L 168.933554 168.830019 
L 172.212893 176.481594 
L 175.492231 168.178821 
L 178.77157 151.410476 
L 182.050909 149.131284 
L 185.330248 167.202024 
L 188.609587 185.109965 
L 191.888926 198.133922 
L 195.168264 183.64477 
L 198.447603 167.039225 
L 201.726942 190.319548 
L 205.006281 188.203155 
L 208.28562 180.388781 
L 211.564959 179.574783 
L 214.844298 166.713626 
L 218.123636 183.319171 
L 221.402975 175.667596 
L 224.682314 224.833034 
L 227.961653 218.158256 
L 231.240992 199.924716 
L 234.520331 177.45839 
L 237.799669 171.59761 
L 241.079008 196.505927 
L 244.358347 206.436694 
L 247.637686 208.553087 
L 250.917025 216.85586 
L 254.196364 220.600248 
L 257.475702 200.087515 
L 260.755041 238.670988 
L 264.03438 238.996587 
L 267.313719 214.251069 
L 270.593058 223.856237 
L 273.872397 234.275402 
L 277.151736 219.623451 
L 280.431074 222.391042 
L 283.710413 242.089777 
L 286.989752 224.833034 
L 290.269091 252.020544 
L 293.54843 259.509319 
L 296.827769 246.648162 
L 300.107107 263.090907 
L 303.386446 245.020167 
L 306.665785 243.066573 
L 309.945124 253.485739 
L 313.224463 289.952818 
L 316.503802 239.973384 
L 319.78314 249.904151 
L 323.062479 255.439332 
L 326.341818 256.578929 
L 329.621157 253.16014 
L 332.900496 251.857744 
L 336.179835 256.09053 
L 339.459174 278.719655 
L 342.738512 259.997717 
L 346.017851 265.532899 
L 349.29719 256.904528 
L 352.576529 235.903397 
L 355.855868 273.021674 
L 359.135207 267.160894 
L 362.414545 265.3701 
L 365.693884 269.765685 
L 368.973223 249.090153 
L 372.252562 260.811715 
L 375.531901 261.625712 
L 378.81124 272.370476 
L 382.090579 273.672872 
L 385.369917 280.184851 
L 388.649256 260.486116 
L 391.928595 280.998848 
L 395.207934 295.488 
L 398.487273 291.906412 
" style="fill:none;stroke:#1f77b4;stroke-linecap:square;stroke-width:1.5;"/>
   </g>
   <g id="patch_3">
    <path d="M 57.6 307.584 
L 57.6 41.472 
" style="fill:none;stroke:#000000;stroke-linecap:square;stroke-linejoin:miter;stroke-width:0.8;"/>
   </g>
   <g id="patch_4">
    <path d="M 414.72 307.584 
L 414.72 41.472 
" style="fill:none;stroke:#000000;stroke-linecap:square;stroke-linejoin:miter;stroke-width:0.8;"/>
   </g>
   <g id="patch_5">
    <path d="M 57.6 307.584 
L 414.72 307.584 
" style="fill:none;stroke:#000000;stroke-linecap:square;stroke-linejoin:miter;stroke-width:0.8;"/>
   </g>
   <g id="patch_6">
    <path d="M 57.6 41.472 
L 414.72 41.472 
" style="fill:none;stroke:#000000;stroke-linecap:square;stroke-linejoin:miter;stroke-width:0.8;"/>
   </g>
   <g id="text_15">
    <text style="font-family:DejaVu Sans;font-size:12px;font-style:normal;font-weight:normal;text-anchor:middle;" transform="rotate(-0, 236.16, 35.472)" x="236.16" y="35.472">Avg. Bits Consumed by log(1+x) (Two-Coin Special Case) Algorithm</text>
   </g>
   <g id="legend_1">
    <g id="patch_7">
     <path d="M 209.399687 64.150125 
L 407.72 64.150125 
Q 409.72 64.150125 409.72 62.150125 
L 409.72 48.472 
Q 409.72 46.472 407.72 46.472 
L 209.399687 46.472 
Q 207.399687 46.472 207.399687 48.472 
L 207.399687 62.150125 
Q 207.399687 64.150125 209.399687 64.150125 
z
" style="fill:#ffffff;opacity:0.8;stroke:#cccccc;stroke-linejoin:miter;"/>
    </g>
    <g id="line2d_14">
     <path d="M 211.399687 54.570438 
L 231.399687 54.570438 
" style="fill:none;stroke:#1f77b4;stroke-linecap:square;stroke-width:1.5;"/>
    </g>
    <g id="line2d_15"/>
    <g id="text_16">
     <text style="font-family:DejaVu Sans;font-size:10px;font-style:normal;font-weight:normal;text-anchor:start;" transform="rotate(-0, 239.399687, 58.070438)" x="239.399687" y="58.070438">log(1+x) (Two-Coin Special Case)</text>
    </g>
   </g>
  </g>
 </g>
 <defs>
  <clipPath id="pe49a807e30">
   <rect height="266.112" width="357.12" x="57.6" y="41.472"/>
  </clipPath>
 </defs>
</svg>

<svg height="460.8" viewBox="0 0 460.8 345.6" width="614.4" xmlns="http://www.w3.org/2000/svg" xmlns:xlink="http://www.w3.org/1999/xlink"><defs><style>*{stroke-linecap:butt;stroke-linejoin:round}</style></defs><g id="figure_1"><path d="M0 345.6h460.8V0H0z" fill="#fff" id="patch_1"/><g id="axes_1"><path d="M57.6 307.584h357.12V41.472H57.6z" fill="#fff" id="patch_2"/><g id="matplotlib.axis_1"><g id="xtick_1"><g id="line2d_1"><defs><path d="M0 0v3.5" id="m6e26e2070c" stroke="#000" stroke-width=".8"/></defs><use x="73.8" xlink:href="#m6e26e2070c" y="307.584" stroke="#000" stroke-width=".8"/></g><text x="73.8" y="322.182" font-family="DejaVu Sans" font-size="10" font-weight="400" text-anchor="middle" id="text_1">0.0</text></g><g id="xtick_2"><use x="138.744" xlink:href="#m6e26e2070c" y="307.584" stroke="#000" stroke-width=".8" id="line2d_2"/><text x="138.744" y="322.182" font-family="DejaVu Sans" font-size="10" font-weight="400" text-anchor="middle" id="text_2">0.2</text></g><g id="xtick_3"><use x="203.688" xlink:href="#m6e26e2070c" y="307.584" stroke="#000" stroke-width=".8" id="line2d_3"/><text x="203.688" y="322.182" font-family="DejaVu Sans" font-size="10" font-weight="400" text-anchor="middle" id="text_3">0.4</text></g><g id="xtick_4"><use x="268.632" xlink:href="#m6e26e2070c" y="307.584" stroke="#000" stroke-width=".8" id="line2d_4"/><text x="268.632" y="322.182" font-family="DejaVu Sans" font-size="10" font-weight="400" text-anchor="middle" id="text_4">0.6</text></g><g id="xtick_5"><use x="333.576" xlink:href="#m6e26e2070c" y="307.584" stroke="#000" stroke-width=".8" id="line2d_5"/><text x="333.576" y="322.182" font-family="DejaVu Sans" font-size="10" font-weight="400" text-anchor="middle" id="text_5">0.8</text></g><g id="xtick_6"><use x="398.52" xlink:href="#m6e26e2070c" y="307.584" stroke="#000" stroke-width=".8" id="line2d_6"/><text x="398.52" y="322.182" font-family="DejaVu Sans" font-size="10" font-weight="400" text-anchor="middle" id="text_6">1.0</text></g><text x="236.16" y="335.861" font-family="DejaVu Sans" font-size="10" font-weight="400" text-anchor="middle" id="text_7">Probability</text></g><g id="matplotlib.axis_2"><g id="ytick_1"><g id="line2d_7"><defs><path d="M0 0h-3.5" id="m70b7d5857f" stroke="#000" stroke-width=".8"/></defs><use x="57.6" xlink:href="#m70b7d5857f" y="267.324" stroke="#000" stroke-width=".8"/></g><text x="50.6" y="271.123" font-family="DejaVu Sans" font-size="10" font-weight="400" text-anchor="end" id="text_8">5.5</text></g><g id="ytick_2"><use x="57.6" xlink:href="#m70b7d5857f" y="226.624" stroke="#000" stroke-width=".8" id="line2d_8"/><text x="50.6" y="230.423" font-family="DejaVu Sans" font-size="10" font-weight="400" text-anchor="end" id="text_9">6.0</text></g><g id="ytick_3"><use x="57.6" xlink:href="#m70b7d5857f" y="185.924" stroke="#000" stroke-width=".8" id="line2d_9"/><text x="50.6" y="189.723" font-family="DejaVu Sans" font-size="10" font-weight="400" text-anchor="end" id="text_10">6.5</text></g><g id="ytick_4"><use x="57.6" xlink:href="#m70b7d5857f" y="145.224" stroke="#000" stroke-width=".8" id="line2d_10"/><text x="50.6" y="149.023" font-family="DejaVu Sans" font-size="10" font-weight="400" text-anchor="end" id="text_11">7.0</text></g><g id="ytick_5"><use x="57.6" xlink:href="#m70b7d5857f" y="104.524" stroke="#000" stroke-width=".8" id="line2d_11"/><text x="50.6" y="108.323" font-family="DejaVu Sans" font-size="10" font-weight="400" text-anchor="end" id="text_12">7.5</text></g><g id="ytick_6"><use x="57.6" xlink:href="#m70b7d5857f" y="63.824" stroke="#000" stroke-width=".8" id="line2d_12"/><text x="50.6" y="67.624" font-family="DejaVu Sans" font-size="10" font-weight="400" text-anchor="end" id="text_13">8.0</text></g><text transform="rotate(-90 28.617 174.528)" x="28.617" y="174.528" font-family="DejaVu Sans" font-size="10" font-weight="400" text-anchor="middle" id="text_14">Average Bits Consumed Per Call</text></g><path clip-path="url(#pe49a807e30)" d="M73.833 56.336l3.28-2.768 3.278 15.954 3.28 37.77 3.28-25.234 3.278 12.21 3.28 1.302 3.28-23.117 3.278 49.002 3.28 9.931 3.28-32.723 3.278 20.676 3.28-26.048 3.28 60.399 3.278 21.652 3.28-61.375 3.28 6.674 3.278-4.395 3.28 9.442 3.28-34.676 3.279 49.98 3.279-22.63 3.28 49.654 3.279-35.165 3.279 50.631 3.28-61.538 3.279 25.885 3.279 51.282 3.28-64.306 3.279 34.025 3.279 7.652 3.28-8.303 3.279-16.769 3.279-2.279 3.28 18.071 3.279 17.908 3.279 13.024 3.28-14.49 3.279-16.605 3.279 23.28 3.28-2.116 3.279-7.814 3.279-.814 3.28-12.861 3.279 16.605 3.279-7.651 3.28 49.165 3.279-6.675 3.279-18.233 3.28-22.467 3.279-5.86 3.279 24.908 3.28 9.93 3.279 2.117 3.279 8.303 3.28 3.744 3.279-20.512 3.279 38.583 3.28.326 3.279-24.746 3.28 9.605 3.278 10.42 3.28-14.653 3.28 2.768 3.278 19.699 3.28-17.257 3.28 27.188 3.278 7.488 3.28-12.86 3.28 16.442 3.278-18.07 3.28-1.954 3.28 10.419 3.278 36.467 3.28-49.98 3.28 9.931 3.278 5.535 3.28 1.14 3.28-3.419 3.278-1.302 3.28 4.233 3.28 22.629 3.279-18.722 3.279 5.535 3.28-8.628 3.279-21.002 3.279 37.119 3.28-5.861 3.279-1.79 3.279 4.395 3.28-20.676 3.279 11.722 3.279.814 3.28 10.744 3.279 1.303 3.279 6.512 3.28-19.699L391.928 281l3.279 14.489 3.28-3.582" fill="none" stroke="#1f77b4" stroke-linecap="square" stroke-width="1.5" id="line2d_13"/><path d="M57.6 307.584V41.472" fill="none" stroke="#000" stroke-linecap="square" stroke-width=".8" id="patch_3"/><path d="M414.72 307.584V41.472" fill="none" stroke="#000" stroke-linecap="square" stroke-width=".8" id="patch_4"/><path d="M57.6 307.584h357.12" fill="none" stroke="#000" stroke-linecap="square" stroke-width=".8" id="patch_5"/><path d="M57.6 41.472h357.12" fill="none" stroke="#000" stroke-linecap="square" stroke-width=".8" id="patch_6"/><text x="236.16" y="35.472" font-family="DejaVu Sans" font-size="12" font-weight="400" text-anchor="middle" id="text_15">Avg. Bits Consumed by log(1+x) (Two-Coin Special Case) Algorithm</text><g id="legend_1"><path d="M209.4 64.15h198.32q2 0 2-2V48.472q0-2-2-2H209.4q-2 0-2 2V62.15q0 2 2 2z" fill="#fff" opacity=".8" stroke="#ccc" id="patch_7"/><path d="M211.4 54.57h20" fill="none" stroke="#1f77b4" stroke-linecap="square" stroke-width="1.5" id="line2d_14"/><text x="239.4" y="58.07" font-family="DejaVu Sans" font-size="10" font-weight="400" id="text_16">log(1+x) (Two-Coin Special Case)</text></g></g></g><defs><clipPath id="pe49a807e30"><path d="M57.6 41.472h357.12v266.112H57.6z"/></clipPath></defs></svg>
